src/lib/packages/icons/src/assets/line/message-text-notification.svg

<svg xmlns="http://www.w3.org/2000/svg" width="24" height="24" fill="none"><path fill="currentColor" d="M3 21.75a.75.75 0 0 1-.75-.75V6c0-2.418 1.332-3.75 3.75-3.75h8a.75.75 0 0 1 0 1.5H6c-1.577 0-2.25.673-2.25 2.25v13.189l1.72-1.72a.749.749 0 0 1 .53-.22h12c1.577 0 2.25-.673 2.25-2.25v-5a.75.75 0 0 1 1.5 0v5c0 2.418-1.332 3.75-3.75 3.75H6.311l-2.78 2.78A.747.747 0 0 1 3 21.75ZM22.75 4A2.752 2.752 0 0 0 20 1.25 2.752 2.752 0 0 0 17.25 4 2.752 2.752 0 0 0 20 6.75 2.752 2.752 0 0 0 22.75 4Zm-1.5 0c0 .689-.561 1.25-1.25 1.25S18.75 4.689 18.75 4s.561-1.25 1.25-1.25 1.25.561 1.25 1.25Zm-5.5 5a.75.75 0 0 0-.75-.75H8a.75.75 0 0 0 0 1.5h7a.75.75 0 0 0 .75-.75Zm-2 4a.75.75 0 0 0-.75-.75H8a.75.75 0 0 0 0 1.5h5a.75.75 0 0 0 .75-.75Z"/></svg>

<svg width="24" height="24" viewBox="0 0 24 24" fill="none" xmlns="http://www.w3.org/2000/svg">
<path d="M3 21.75C2.903 21.75 2.80589 21.731 2.71289 21.693C2.43289 21.577 2.25 21.303 2.25 21V6C2.25 3.582 3.582 2.25 6 2.25H14C14.414 2.25 14.75 2.586 14.75 3C14.75 3.414 14.414 3.75 14 3.75H6C4.423 3.75 3.75 4.423 3.75 6V19.189L5.46997 17.469C5.61097 17.328 5.801 17.249 6 17.249H18C19.577 17.249 20.25 16.576 20.25 14.999V9.99902C20.25 9.58502 20.586 9.24902 21 9.24902C21.414 9.24902 21.75 9.58502 21.75 9.99902V14.999C21.75 17.417 20.418 18.749 18 18.749H6.31104L3.53101 21.5291C3.38701 21.6741 3.195 21.75 3 21.75ZM22.75 4C22.75 2.483 21.517 1.25 20 1.25C18.483 1.25 17.25 2.483 17.25 4C17.25 5.517 18.483 6.75 20 6.75C21.517 6.75 22.75 5.517 22.75 4ZM21.25 4C21.25 4.689 20.689 5.25 20 5.25C19.311 5.25 18.75 4.689 18.75 4C18.75 3.311 19.311 2.75 20 2.75C20.689 2.75 21.25 3.311 21.25 4ZM15.75 9C15.75 8.586 15.414 8.25 15 8.25H8C7.586 8.25 7.25 8.586 7.25 9C7.25 9.414 7.586 9.75 8 9.75H15C15.414 9.75 15.75 9.414 15.75 9ZM13.75 13C13.75 12.586 13.414 12.25 13 12.25H8C7.586 12.25 7.25 12.586 7.25 13C7.25 13.414 7.586 13.75 8 13.75H13C13.414 13.75 13.75 13.414 13.75 13Z" fill="currentColor"/>
</svg>
